X: 22454
T: Lads Of Mull, The
R: reel
M: 4/4
K: Amixolydian
eAAA BA B2|AAAa gefd|eAAA BA B2|GGGd BcdB|
eAAA BA B2|AAAa gefd|efed BA B2|GGGd BcdB||
AAAa ge a2|AAAa gefd|AAAa ge g2|GGGd BcdB|
AAAa ge a2|AAAa gefd|efga ge g2|GGGd BcdB||
cAAd cA B2|AAAa gefd|e2 Ad cA B2|GGGd BcdB|
ceAd cA B2|AAAa gefd|efed BA B2|GGGd BcdB||
efga ge d2|efge agfd|efga ge d2|GGGd BcdB|
efga ge d2|efge agfd|agfa ge d2|GGGd BcdB||

